X: 54
T: No_153_Song_of_Thanks_for_a_Pony_(c).krn
N: Derived from No_153_Song_of_Thanks_for_a_Pony_(c).krn
%%abc-version 2.0
%%abcx-abcm2ps-target-version 5.9.1 (29 Sep 2008)
%%abc-creator hum2abc beta
%%abcx-conversion-date 2019/03/15 08:29:13
%%humdrum-veritas 156059270
%%humdrum-veritas-data 2978719516
%%linebreak <none>
%%barnumbers 0
L: 1/8
M: 4/4
%%staves {1 2}
V: 1 clef=bass
V: 2 clef=bass
K: Db
[V:1] D/B,3/ [I:setbarnb 1]| 
[V:2] z G,, | 
[V:1] DB,B,4A,2 | 
[V:2] (3!accent!G,, z G,, (3!accent!G,, z G,, (3!accent!G,, z G,, (3!accent!G,, z G,, | 
[V:1] B,B,B,4A,2 | 
[V:2] z8 | 
[V:1] A,F,F,4B,D | 
[V:2] z8 | 
[V:1] A,F,F,2A,F,F,F, | 
[V:2] z8 | 
[V:1] F,6z2 |]  
[V:2] z8 |]  



